images/logo.svg

<svg width="103" height="35" viewBox="0 0 103 35" fill="none" xmlns="http://www.w3.org/2000/svg">
<path d="M92.6227 8.47562C97.8148 8.47562 102.076 11.4635 102.076 19.3496V33.7503H98.0597V19.5945C98.0597 14.6963 95.9045 12.1493 92.1329 12.1493C87.9695 12.1493 85.4224 15.2841 85.4224 20.3782V33.7503H81.4059V19.5945C81.4059 14.6963 79.2017 12.1493 75.3811 12.1493C71.2666 12.1493 68.7685 15.578 68.7685 20.5742V33.7503H64.752V10.2759L68.7685 8.80903V12.1982C70.091 10.3859 72.1972 8.47562 76.0668 8.47562C79.5445 8.47562 82.5324 10.043 83.9529 13.2269C85.4714 10.5329 88.1654 8.47562 92.6227 8.47562Z" fill="black"/>
<path d="M55.231 33.7841V10.3116L59.448 8.73581V33.7841H55.231Z" fill="black"/>
<path d="M26.9425 21.2599C26.9425 28.9011 31.8407 34.0442 39.3349 34.0442C45.1148 34.0442 49.2293 30.3706 50.2089 25.3744H46.1434C45.3107 28.6072 42.5678 30.4685 39.041 30.4685C34.2898 30.4685 31.2519 26.6473 31.1204 21.2599C31.23 15.2272 35.1715 12.0023 38.8451 12.0023C43.0086 12.0023 45.9475 14.4024 46.3394 18.7129H33.6297L32.4551 22.0436H50.5518C50.6008 21.4558 50.6498 20.8681 50.6498 20.3293C50.4539 12.933 45.8495 8.47562 38.7961 8.47562C31.7427 8.47562 26.9425 13.6677 26.9425 21.2599Z" fill="black"/>
<path d="M26.9425 21.2599C26.9425 28.9011 31.8407 34.0442 39.3349 34.0442L39.041 30.4685C34.2898 30.4685 31.2519 26.6473 31.1204 21.2599C31.23 15.2272 35.1715 12.0023 38.8451 12.0023L38.7961 8.47562C31.7427 8.47562 26.9425 13.6677 26.9425 21.2599Z" fill="black"/>
<path d="M12.8521 8.47564C18.4361 8.47564 22.9914 11.5615 22.9914 19.8395V33.7504H18.9749V20.0844C18.9749 14.8923 16.4768 12.1493 12.1664 12.1493C7.51308 12.1493 4.62314 15.627 4.62314 21.2599V33.7504H0.606613V1.98841L4.62314 0.725677V12.884C6.0926 10.5329 8.63966 8.47564 12.8521 8.47564Z" fill="black"/>
</svg>

<?xml version="1.0" encoding="utf-8"?>
<!-- Generator: Adobe Illustrator 28.1.0, SVG Export Plug-In . SVG Version: 6.00 Build 0)  -->
<svg version="1.1" id="Layer_1" xmlns="http://www.w3.org/2000/svg" xmlns:xlink="http://www.w3.org/1999/xlink" x="0px" y="0px"
	 viewBox="0 0 103 35" style="enable-background:new 0 0 103 35;" xml:space="preserve">
<style type="text/css">
	.st0{fill:#FFFFFF;}
</style>
<path class="st0" d="M92.6,8.5c5.2,0,9.5,3,9.5,10.9v14.4h-4V19.6c0-4.9-2.2-7.4-5.9-7.4c-4.2,0-6.7,3.1-6.7,8.2v13.4h-4V19.6
	c0-4.9-2.2-7.4-6-7.4c-4.1,0-6.6,3.4-6.6,8.4v13.2h-4V10.3l4-1.5v3.4c1.3-1.8,3.4-3.7,7.3-3.7c3.5,0,6.5,1.6,7.9,4.8
	C85.5,10.5,88.2,8.5,92.6,8.5z"/>
<path class="st0" d="M55.2,33.8V10.3l4.2-1.6v25H55.2z"/>
<path class="st0" d="M26.9,21.3c0,7.6,4.9,12.8,12.4,12.8c5.8,0,9.9-3.7,10.9-8.7h-4.1c-0.8,3.2-3.6,5.1-7.1,5.1
	c-4.8,0-7.8-3.8-7.9-9.2c0.1-6,4.1-9.3,7.7-9.3c4.2,0,7.1,2.4,7.5,6.7H33.6L32.5,22h18.1c0-0.6,0.1-1.2,0.1-1.7
	c-0.2-7.4-4.8-11.9-11.9-11.9S26.9,13.7,26.9,21.3z"/>
<path class="st0" d="M26.9,21.3c0,7.6,4.9,12.8,12.4,12.8L39,30.5c-4.8,0-7.8-3.8-7.9-9.2c0.1-6,4.1-9.3,7.7-9.3l0-3.5
	C31.7,8.5,26.9,13.7,26.9,21.3z"/>
<path class="st0" d="M12.9,8.5c5.6,0,10.1,3.1,10.1,11.4v13.9h-4V20.1c0-5.2-2.5-7.9-6.8-7.9c-4.7,0-7.5,3.5-7.5,9.1v12.5h-4V2
	l4-1.3v12.2C6.1,10.5,8.6,8.5,12.9,8.5z"/>
</svg>
